img/prosper/prosper.svg

<svg fill="none" height="500" viewBox="0 0 800 500" width="800" xmlns="http://www.w3.org/2000/svg"><path d="m0 0h800v500h-800z" fill="#fce4dc"/><g fill="#47326c"><path clip-rule="evenodd" d="m189 197h48.654c17.557 0 28.653 7.56 28.653 23.289 0 17.557-11.949 24.142-29.263 24.142h-18.046v36.457h-9.998v-36.457h-10.002v36.457h-9.998zm20 43.407v-39.383h-10.002v39.383zm9.998 0v-39.383h17.68c13.168 0 19.265 7.437 19.265 19.508 0 11.706-5.487 19.875-18.411 19.875z" fill-rule="evenodd"/><path d="m305.459 219.191c-9.389 0-15.973 7.072-18.412 13.534v-12.071h-9.266v60.234h9.51v-34.994c0-14.144 7.316-20.362 17.436-20.362 1.951 0 3.17.122 4.024.243v-6.34c-.732-.122-1.707-.244-3.292-.244z"/><path clip-rule="evenodd" d="m370.14 250.771c0 16.948-10.242 31.58-29.141 31.58-18.9 0-29.142-14.632-29.142-31.58 0-16.826 10.242-31.58 29.142-31.58 18.899 0 29.141 14.754 29.141 31.58zm-48.284 0c0 16.339 6.096 28.288 19.143 28.288 13.046 0 19.143-12.071 19.143-28.288 0-16.095-6.097-28.288-19.143-28.288-13.047 0-19.143 12.071-19.143 28.288z" fill-rule="evenodd"/><path d="m405.087 282.351c13.9 0 24.996-7.438 24.996-19.387 0-9.876-7.072-13.656-18.9-16.46l-8.9-2.073c-7.316-1.707-12.071-4.146-12.071-10.486 0-6.584 5.486-11.706 14.143-11.706 10.243 0 15.607 5.609 16.583 16.217l7.56-1.341c-1.586-11.218-10.608-17.924-23.655-17.924-13.656 0-23.41 7.316-23.41 17.314 0 9.145 6.584 13.656 15.607 15.729l8.901 2.073c11.949 2.804 15.363 5.365 15.363 11.461 0 7.804-4.878 13.535-15.485 13.535-11.828 0-18.412-7.072-19.509-19.509l-7.682 1.219c1.22 14.388 11.949 21.338 26.459 21.338z"/><path clip-rule="evenodd" d="m453.04 269.548v33.897h-9.511v-82.791h9.511v11.706c2.804-6.828 9.388-13.169 20.85-13.169 16.094 0 27.312 12.681 27.312 31.58s-11.218 31.58-27.312 31.58c-11.34 0-17.802-6.219-20.85-12.803zm-.366-18.777c0 16.095 7.194 28.288 19.387 28.288 12.924 0 19.265-11.827 19.265-28.288 0-16.46-6.341-28.288-19.265-28.288-12.193 0-19.387 12.193-19.387 28.288z" fill-rule="evenodd"/><path clip-rule="evenodd" d="m566.299 249.43c0-18.29-11.461-30.239-26.702-30.239-15.486 0-28.41 11.584-28.41 31.702 0 20.484 12.193 31.458 28.531 31.458 15.729 0 22.801-9.998 25.118-19.753l-3.902-.609c-2.194 10.242-9.266 16.704-19.265 16.704-13.168 0-20.118-10.608-20.362-28.166h44.992zm-44.87-2.317c.854-14.022 6.096-24.63 18.168-24.63 11.705 0 15.607 10.486 15.972 24.63z" fill-rule="evenodd"/><path d="m589.252 232.725c2.439-6.462 9.023-13.534 18.412-13.534 1.585 0 2.56.122 3.292.244v6.34c-.854-.121-2.073-.243-4.024-.243-10.12 0-17.436 6.218-17.436 20.362v34.994h-9.51v-60.234h9.266z"/></g></svg>

<svg width="800" height="500" viewBox="0 0 800 500" fill="none" xmlns="http://www.w3.org/2000/svg">
<rect width="800" height="500" fill="#FCE4DC"/>
<path fill-rule="evenodd" clip-rule="evenodd" d="M189 197H237.654C255.211 197 266.307 204.56 266.307 220.289C266.307 237.846 254.358 244.431 237.044 244.431H218.998V280.888H209V244.431H198.998V280.888H189V197ZM209 240.407V201.024H198.998V240.407H209ZM218.998 240.407V201.024H236.678C249.846 201.024 255.943 208.461 255.943 220.532C255.943 232.238 250.456 240.407 237.532 240.407H218.998Z" fill="#47326C"/>
<path d="M305.459 219.191C296.07 219.191 289.486 226.263 287.047 232.725V220.654H277.781V280.888H287.291V245.894C287.291 231.75 294.607 225.532 304.727 225.532C306.678 225.532 307.897 225.654 308.751 225.775V219.435C308.019 219.313 307.044 219.191 305.459 219.191Z" fill="#47326C"/>
<path fill-rule="evenodd" clip-rule="evenodd" d="M370.14 250.771C370.14 267.719 359.898 282.351 340.999 282.351C322.099 282.351 311.857 267.719 311.857 250.771C311.857 233.945 322.099 219.191 340.999 219.191C359.898 219.191 370.14 233.945 370.14 250.771ZM321.856 250.771C321.856 267.11 327.952 279.059 340.999 279.059C354.045 279.059 360.142 266.988 360.142 250.771C360.142 234.676 354.045 222.483 340.999 222.483C327.952 222.483 321.856 234.554 321.856 250.771Z" fill="#47326C"/>
<path d="M405.087 282.351C418.987 282.351 430.083 274.913 430.083 262.964C430.083 253.088 423.011 249.308 411.183 246.504L402.283 244.431C394.967 242.724 390.212 240.285 390.212 233.945C390.212 227.361 395.698 222.239 404.355 222.239C414.598 222.239 419.962 227.848 420.938 238.456L428.498 237.115C426.912 225.897 417.89 219.191 404.843 219.191C391.187 219.191 381.433 226.507 381.433 236.505C381.433 245.65 388.017 250.161 397.04 252.234L405.941 254.307C417.89 257.111 421.304 259.672 421.304 265.768C421.304 273.572 416.426 279.303 405.819 279.303C393.991 279.303 387.407 272.231 386.31 259.794L378.628 261.013C379.848 275.401 390.577 282.351 405.087 282.351Z" fill="#47326C"/>
<path fill-rule="evenodd" clip-rule="evenodd" d="M453.04 269.548V303.445H443.529V220.654H453.04V232.36C455.844 225.532 462.428 219.191 473.89 219.191C489.984 219.191 501.202 231.872 501.202 250.771C501.202 269.67 489.984 282.351 473.89 282.351C462.55 282.351 456.088 276.132 453.04 269.548ZM452.674 250.771C452.674 266.866 459.868 279.059 472.061 279.059C484.985 279.059 491.326 267.232 491.326 250.771C491.326 234.311 484.985 222.483 472.061 222.483C459.868 222.483 452.674 234.676 452.674 250.771Z" fill="#47326C"/>
<path fill-rule="evenodd" clip-rule="evenodd" d="M566.299 249.43C566.299 231.14 554.838 219.191 539.597 219.191C524.111 219.191 511.187 230.775 511.187 250.893C511.187 271.377 523.38 282.351 539.718 282.351C555.447 282.351 562.519 272.353 564.836 262.598L560.934 261.989C558.74 272.231 551.668 278.693 541.669 278.693C528.501 278.693 521.551 268.085 521.307 250.527H566.299V249.43ZM521.429 247.113C522.283 233.091 527.525 222.483 539.597 222.483C551.302 222.483 555.204 232.969 555.569 247.113H521.429Z" fill="#47326C"/>
<path d="M589.252 232.725C591.691 226.263 598.275 219.191 607.664 219.191C609.249 219.191 610.224 219.313 610.956 219.435V225.775C610.102 225.654 608.883 225.532 606.932 225.532C596.812 225.532 589.496 231.75 589.496 245.894V280.888H579.986V220.654H589.252V232.725Z" fill="#47326C"/>
</svg>
